X:5
T:the Moon and Seven Stars.
O:Scotland
Z:Transcriptions by Jack Campin, July 1999.
%% marked up a little by eric in B and also chords
B:Aird's Airs and Melodies vol 1
M:6/8
L:1/8
Q: 3/8=112
K:D
"D"d2A AGF|"G"GAB "D"A3 |"G"Bcd efg|"A"fed cBA|
"D"d2A AGF|"G"GAB "D"A3 |"G"Bcd efg|"A"Adc "D"d3:|
"A"e2A ABA|efg "D"f3 |"A"efg fed|"E"cdB "A"A3 |
"G"BGB "D"AFA|"G"BGB "D"AFA|"G"Bcd efg|"A"Adc "D"d3:|
%% "A"e2A A2f|efg "D"f3 |"A"fgf e2d|"E"cdB "A"A3 |
%% "G"BGB "D"AFA|"G"BGB "D"AFA|"G"Bcd efg|"A"Adc "D"d3:|
%% -- the original B part
